X: 1
T: An Cupan Tae
M: 6/8
L: 1/8
R: jig
K: Edor
EFE GFE|dcA BAF|EFE GFE|dcA B3|
EFE GFE|dcA BAd|EFE GFE|AFD E3:|
eBB eBB|efg fed|eBB eBB|afd e3|
eBB eBB|efg fed|efe BAB|AFD E3:|
